src/images/bridges/stargate.svg

<svg width="120" height="120" viewBox="0 0 120 120" fill="none" xmlns="http://www.w3.org/2000/svg">
<path d="M0 60C0 26.8629 26.8629 0 60 0V0C93.1371 0 120 26.8629 120 60V60C120 93.1371 93.1371 120 60 120V120C26.8629 120 0 93.1371 0 60V60Z" fill="black"/>
<path d="M0 60C0 26.8629 26.8629 0 60 0V0C93.1371 0 120 26.8629 120 60V60C120 93.1371 93.1371 120 60 120V120C26.8629 120 0 93.1371 0 60V60Z" fill="black"/>
<path d="M68.897 15.8805L71.4932 21.9609C76.5886 33.8993 86.0991 43.4088 98.0389 48.5037L104.12 51.0998C105.711 51.7781 107.003 52.7514 108.001 53.9104C104.972 32.1994 87.799 15.0257 66.0859 12C67.2428 12.9949 68.2184 14.2891 68.897 15.8805Z" fill="#A6A6A6"/>
<path d="M15.8808 51.0998L21.962 48.5037C33.9019 43.4087 43.4119 33.8992 48.51 21.9609L51.1035 15.8805C51.7847 14.2891 52.7581 12.9949 53.9149 12C32.2015 15.0257 15.0284 32.1994 12 53.9104C12.9973 52.7514 14.2895 51.7781 15.8809 51.0998L15.8808 51.0998Z" fill="#A6A6A6"/>
<path d="M104.12 68.8978L98.0389 71.4938C86.0991 76.5889 76.5886 86.1004 71.4932 98.0391L68.897 104.117C68.2183 105.708 67.2428 107.003 66.0859 108C87.799 104.972 104.972 87.7981 108.001 66.0869C107.003 67.246 105.711 68.2193 104.12 68.8978Z" fill="#A6A6A6"/>
<path d="M51.1036 104.117L48.5101 98.0391C43.412 86.1004 33.9019 76.5889 21.962 71.4938L15.8809 68.8978C14.2895 68.2192 12.9972 67.246 12 66.0869C15.0284 87.7981 32.2015 104.972 53.9149 108C52.7581 107.003 51.7847 105.708 51.1035 104.117H51.1036Z" fill="#A6A6A6"/>
<path d="M38.5593 55.3766L41.4642 54.1362C47.1666 51.7018 51.7102 47.1611 54.1447 41.4592L55.3833 38.5544C57.12 34.4864 62.888 34.4864 64.6248 38.5544L65.8631 41.4592C68.298 47.1611 72.8414 51.7018 78.5438 54.1362L81.4489 55.3766C85.5171 57.1133 85.5171 62.8784 81.4489 64.6151L78.5438 65.8556C72.8415 68.2897 68.298 72.8307 65.8631 78.5349L64.6248 81.4373C62.888 85.5049 57.12 85.5049 55.3833 81.4373L54.1447 78.5349C51.7102 72.8307 47.1666 68.2897 41.4642 65.8556L38.5593 64.6151C34.4907 62.8784 34.4907 57.1133 38.5593 55.3766Z" fill="white"/>
</svg>

<svg xmlns="http://www.w3.org/2000/svg" width="120" height="120" fill="none"><path fill="#000" d="M0 60C0 26.863 26.863 0 60 0s60 26.863 60 60-26.863 60-60 60S0 93.137 0 60"/><path fill="#000" d="M0 60C0 26.863 26.863 0 60 0s60 26.863 60 60-26.863 60-60 60S0 93.137 0 60"/><path fill="#A6A6A6" d="m68.897 15.88 2.596 6.08A50.35 50.35 0 0 0 98.04 48.505l6.081 2.596c1.591.678 2.883 1.651 3.881 2.81C104.972 32.2 87.799 15.026 66.086 12c1.157.995 2.132 2.29 2.811 3.88M15.88 51.1l6.082-2.596A50.36 50.36 0 0 0 48.51 21.96l2.593-6.08c.682-1.592 1.655-2.886 2.812-3.881C32.202 15.026 15.028 32.2 12 53.91c.997-1.159 2.29-2.132 3.88-2.81M104.12 68.898l-6.081 2.596a50.35 50.35 0 0 0-26.546 26.545l-2.596 6.078A10.54 10.54 0 0 1 66.086 108c21.713-3.028 38.886-20.202 41.915-41.913-.998 1.159-2.29 2.132-3.881 2.81M51.104 104.117l-2.594-6.078a50.36 50.36 0 0 0-26.548-26.545l-6.081-2.596c-1.591-.679-2.884-1.652-3.881-2.811C15.028 87.798 32.202 104.972 53.915 108c-1.157-.997-2.13-2.292-2.812-3.883"/><path fill="#fff" d="m38.56 55.377 2.904-1.24a24.06 24.06 0 0 0 12.68-12.678l1.24-2.905c1.736-4.068 7.504-4.068 9.24 0l1.24 2.905a24.06 24.06 0 0 0 12.68 12.677l2.905 1.24c4.068 1.737 4.068 7.502 0 9.24l-2.905 1.24a24.05 24.05 0 0 0-12.68 12.679l-1.24 2.902c-1.736 4.068-7.504 4.068-9.24 0l-1.24-2.902a24.05 24.05 0 0 0-12.68-12.68l-2.905-1.24c-4.068-1.737-4.068-7.502 0-9.238"/></svg>
